findly-builder/apps/searchassist/src/assets/icons/chrome_logo.svg

<svg width="28" height="25" viewBox="0 0 28 25" fill="none" xmlns="http://www.w3.org/2000/svg">
<path d="M25.5484 12.4997C25.5484 18.2518 20.497 22.9163 14.268 22.9163C8.03891 22.9163 2.98755 18.2518 2.98755 12.4997C2.98755 6.74759 8.03891 2.08301 14.268 2.08301C20.497 2.08301 25.5484 6.74759 25.5484 12.4997Z" fill="#4CAF50"/>
<path d="M14.2679 2.08301V12.4997L18.7801 14.583L13.7925 22.9163C13.9713 22.9163 14.0892 22.9163 14.2679 22.9163C20.5021 22.9163 25.5484 18.2564 25.5484 12.4997C25.5484 6.7429 20.5021 2.08301 14.2679 2.08301Z" fill="#FFC107"/>
<path d="M25.5484 12.4997C25.5484 18.2518 20.497 22.9163 14.268 22.9163C8.03891 22.9163 2.98755 18.2518 2.98755 12.4997C2.98755 6.74759 8.03891 2.08301 14.268 2.08301C20.497 2.08301 25.5484 6.74759 25.5484 12.4997Z" fill="#4CAF50"/>
<path d="M14.2679 2.08301V12.4997L18.7801 14.583L13.7925 22.9163C13.9713 22.9163 14.0892 22.9163 14.2679 22.9163C20.5021 22.9163 25.5484 18.2564 25.5484 12.4997C25.5484 6.7429 20.5021 2.08301 14.2679 2.08301Z" fill="#FFC107"/>
<path d="M24.33 7.81217H14.2679V14.583L12.5759 14.0622L4.76983 6.90592H4.75854C6.75518 4.00488 10.269 2.08301 14.2679 2.08301C18.6673 2.08301 22.4744 4.41634 24.33 7.81217Z" fill="#F44336"/>
<path d="M4.7688 6.9082L9.75643 14.6488L12.576 14.0624L4.7688 6.9082Z" fill="#DD2C00"/>
<path d="M13.7925 22.9163L18.8314 14.5523L16.524 13.0205L13.7925 22.9163Z" fill="#558B2F"/>
<path d="M24.3443 7.8125H14.268L13.3774 10.1979L24.3443 7.8125Z" fill="#F9A825"/>
<path d="M19.344 12.5C19.344 15.088 17.0704 17.1875 14.2678 17.1875C11.4652 17.1875 9.19165 15.088 9.19165 12.5C9.19165 9.91198 11.4652 7.8125 14.2678 7.8125C17.0704 7.8125 19.344 9.91198 19.344 12.5Z" fill="white"/>
<path d="M18.2161 12.5003C18.2161 14.5144 16.449 16.1462 14.268 16.1462C12.0869 16.1462 10.3198 14.5144 10.3198 12.5003C10.3198 10.4863 12.0869 8.85449 14.268 8.85449C16.449 8.85449 18.2161 10.4863 18.2161 12.5003Z" fill="#2196F3"/>
</svg>

<svg width="28" height="25" fill="none" xmlns="http://www.w3.org/2000/svg"><path d="M25.548 12.5c0 5.752-5.051 10.416-11.28 10.416-6.23 0-11.28-4.664-11.28-10.416 0-5.752 5.05-10.417 11.28-10.417 6.229 0 11.28 4.665 11.28 10.417Z" fill="#4CAF50"/><path d="M14.268 2.083V12.5l4.512 2.083-4.988 8.333h.476c6.234 0 11.28-4.66 11.28-10.416 0-5.757-5.046-10.417-11.28-10.417Z" fill="#FFC107"/><path d="M25.548 12.5c0 5.752-5.051 10.416-11.28 10.416-6.23 0-11.28-4.664-11.28-10.416 0-5.752 5.05-10.417 11.28-10.417 6.229 0 11.28 4.665 11.28 10.417Z" fill="#4CAF50"/><path d="M14.268 2.083V12.5l4.512 2.083-4.988 8.333h.476c6.234 0 11.28-4.66 11.28-10.416 0-5.757-5.046-10.417-11.28-10.417Z" fill="#FFC107"/><path d="M24.33 7.812H14.268v6.771l-1.692-.52L4.77 6.905h-.011c1.996-2.901 5.51-4.823 9.509-4.823 4.4 0 8.206 2.333 10.062 5.73Z" fill="#F44336"/><path d="m4.769 6.908 4.987 7.74 2.82-.586-7.807-7.154Z" fill="#DD2C00"/><path d="m13.793 22.916 5.038-8.364-2.307-1.531-2.732 9.895Z" fill="#558B2F"/><path d="M24.344 7.813H14.268l-.89 2.385 10.966-2.386Z" fill="#F9A825"/><path d="M19.344 12.5c0 2.588-2.274 4.688-5.076 4.688-2.803 0-5.076-2.1-5.076-4.688 0-2.588 2.273-4.688 5.076-4.688 2.802 0 5.076 2.1 5.076 4.688Z" fill="#fff"/><path d="M18.216 12.5c0 2.014-1.767 3.646-3.948 3.646S10.32 14.514 10.32 12.5c0-2.014 1.767-3.646 3.948-3.646s3.948 1.632 3.948 3.646Z" fill="#2196F3"/></svg>
